X:557
T:Save Me From Death.
T:saor me on t-eug.
R:waltz
N:"Plaintively." "Collected from F. O'Neill."
B:O'Neill's 557
M:3/4
L:1/8
<START_ANN> %Q:68 <END_ANN>
K:D
3ABc|d2 d2 A2|dc BA Bc|de dc BA|d3 e 3def|
c2 dc BA|F4 A2|B3 c de|d4 fe|
d2 de/f/ ed|c2 cd/e/ dc|Bc dc BA|F4 3def|
B2 dc BA|F4 A2|B3 c dfe|d4||
de|f2 fe fg|f2 fg/a/ gf|e2 e2 e2|e3 f ac|
d2 df ed|c2 cd/e/ .d.c|Bc dc BA|F4 AB/c/|
dF F2 .E.D|D4 3def|e2 dc Bc|BA4 3def|
AB dc BA|B.A F3A|B3 .c.df.e|d4||
